modules/themify-icons/icons/gallery.svg

<?xml version="1.0" encoding="utf-8"?>
<!-- Generated by IcoMoon.io -->
<!DOCTYPE svg PUBLIC "-//W3C//DTD SVG 1.1//EN" "http://www.w3.org/Graphics/SVG/1.1/DTD/svg11.dtd">
<svg version="1.1" xmlns="http://www.w3.org/2000/svg" xmlns:xlink="http://www.w3.org/1999/xlink" width="17" height="17" viewBox="0 0 17 17">
<g>
</g>
	<path d="M13 10v-10h-13v13h13v-3zM1 1h11v8h-0.755l-2.564-3.319-1.159 1.214-2.248-3.881-3.576 5.986h-0.698v-8zM9.982 9h-7.119l2.398-4.014 2.064 3.564 1.275-1.337 1.382 1.787zM1 12v-2h11v2h-11zM17 3v13h-13v-1.984h1v0.984h11v-11h-2v-1h3z" fill="#000000" />
</svg>

<svg xmlns="http://www.w3.org/2000/svg" width="17" height="17"><path d="M13 10V0H0v13h13v-3zM1 1h11v8h-.755L8.681 5.681 7.522 6.895 5.274 3.014 1.698 9H1V1zm8.982 8H2.863l2.398-4.014L7.325 8.55 8.6 7.213 9.982 9zM1 12v-2h11v2H1zm16-9v13H4v-1.984h1V15h11V4h-2V3h3z"/></svg>
